X:2170
L:1/8
M:4/4
K:Bb
 f | d<B TB2 F>B e/d/c/B/ | f>B e/d/c/B/ Accf | d>B TB2 FB df | g/a/g/f/ ga bB B :| f | bBaB gBfB | 
 e>c e/d/c/B/ Accf | bagf gfdf | g/a/g/f/ ga bB Bf | bagf gfed | edcB AccB | ABGB FBEB | 
 DB ec dB B ||

